X: 20988
T: Julia Clifford's
R: polka
M: 2/4
K: Adorian
EA A>c|BA ec|B2 gd|BG AG|
EA A>c|BA ec|Bg dB|A2 A2:|
g>f ge|a>g ef|ge dc|BG G2|
g>f ge|a>g ef|ge dB|A2 A2||
g>f ge|a>g ef|ge dc|BG AG|
EA A>c|BA ec|Bg dB|A2 A2||

